X:986
T:An dro 1
R:Reel
O:Brittany
S:Claus Steinort, Ir-Trad, 3/97
S:oneila~1.abc
Z:Transcription:??, chords:Mike Long
M:C|
L:1/8
K:Bm
"Bm"Bffe ~f3e|"D"dfef d2B2|"A"cded cBA2|[1 "Bm"BdcA "A"BAFA:|[2 "Bm"BdcA ~B3A|]
|:"Bm"BdcB "A"A2A2|"A"ABcd "Bm"cBBA|"Bm"BdcB "A"A2A2|"A"ABcd "Bm"~B3A:|
